X:188
T:Pretty Barbara Allen - Woodrich
%%VWML:SBG-1-2-615-0
F:http://www.vwml.org/record/SBG/1/2/615
Z:Original Sibelius transcriptions by M. & S. Graebe
M:2/4
I:linebreak $
K:D
V:1 treble nm="P1"
V:1
 F D | F E F G | F D B,/C/ D | E F D C | D3 A | d d Bd | c A F A | E E F ^G | A3 A |$ d d B d | %10
 c A z A | d3/2 e/ d B |{/B} A3 D | G A B G | F D B,/C/ D | E F D C | D4 | %17
T:Pretty Barbara Allen -air on Bodmin- Woodrich
F:http://www.vwml.org/record/SBG/1/2/615
Z:Original Sibelius transcriptions by M. & S. Graebe
L:1/8
M:6/8
I:linebreak $
K:A
V:1 treble nm="P1"
V:2 treble 
V:1
 C | G2 G G2 F | E2 F C2 E | G2 A GF E | F G2 z2 c | B2 G F E ^D | E F F C2 A |$ GG E^D C F | %8
w: ||||||||
 C2 F E2 E | F3 B2 c | c2 B G2 F/E/ | F2 G2 c/ c/ | B2 G F2 E/ E/ |$ B3 B2 z | F E2 z2 E | %15
w: ||||||* * O|
 F G2 z2 c | cB G F/E/ F A | G !fermata!G c B G F | B B2 z2 x | %19
w: Allen! _ Her|name _ was Barbara _ _ _|Allen _ O Bar- bara _|Allen. *|
V:2
 x | x6 | x6 | x6 | x6 | x6 | x6 |$ x6 | x6 | x6 | x6 | x5 | x6 |$ x6 | x6 | x6 | x6 | x6 | %18
 G G2 x3 | %19
T:Pretty Barbara Allen - Gloucestershire
F:http://www.vwml.org/record/SBG/1/2/615
Z:Original Sibelius transcriptions by M. & S. Graebe
M:6/8
I:linebreak $
K:G
V:1 treble nm="P1"
V:1
 D B B | B3 A G B D3 B c e | d3 G B d2 z | d e e |$ d3 B A B E3 F/ F/ G A | A3 D/ D/ F G A d2 | %6
 c/ c/ B c | A3 D/ D/ F G2 z | %8
